src/static/logos/smartling.svg

<?xml version="1.0" encoding="UTF-8"?>
<svg width="256px" height="256px" viewBox="0 0 256 256" version="1.1" xmlns="http://www.w3.org/2000/svg" xmlns:xlink="http://www.w3.org/1999/xlink" preserveAspectRatio="xMidYMid">
    <g>
        <path d="M104.898332,197.429207 C79.2863507,197.429207 58.4418751,176.584733 58.4418751,150.972751 C58.4418751,125.36077 79.2863507,104.516295 104.898332,104.516295 C130.510312,104.516295 151.354788,125.36077 151.354788,150.972751 C151.354788,176.584733 130.510312,197.429207 104.898332,197.429207 Z M104.898332,120.753607 C88.2334403,120.753607 74.6684973,134.307861 74.6684973,150.983441 C74.6684973,167.659021 88.2227513,181.213275 104.898332,181.213275 C121.573912,181.213275 135.128166,167.659021 135.128166,150.983441 C135.128166,134.307861 121.563223,120.753607 104.898332,120.753607 Z M113.875431,160.153811 C108.90365,165.125592 100.8428,165.125592 95.8710188,160.153811 C90.8992375,155.182029 90.8992375,147.121179 95.8710188,142.149398 C100.8428,137.177617 108.90365,137.177617 113.875431,142.149398 C118.847213,147.121179 118.847213,155.182029 113.875431,160.153811 Z M104.898332,232.319653 C96.6139885,232.319653 88.4472302,231.079673 80.6225351,228.631783 C76.3039873,227.28491 73.8988551,222.688436 75.2457292,218.369888 C76.5926026,214.05134 81.1890772,211.635519 85.5076243,212.993082 C91.750278,214.949256 98.281547,215.932688 104.898332,215.932688 C140.708071,215.932688 169.847579,186.79318 169.847579,150.983441 C169.847579,115.173701 140.708071,86.0341936 104.898332,86.0341936 C69.0885919,86.0341936 39.9490842,115.173701 39.9490842,150.983441 C39.9490842,157.610915 40.9432054,164.152873 42.8993792,170.406216 C44.2462529,174.724764 41.8411212,179.321238 37.5225735,180.678801 C33.2040257,182.025675 28.6075517,179.620543 27.2499884,175.301995 C24.7914093,167.455921 23.5514303,159.278473 23.5514303,150.983441 C23.5514303,106.130406 60.0452963,69.6365393 104.898332,69.6365393 C149.751367,69.6365393 186.234543,106.130406 186.234543,150.983441 C186.234543,195.836475 149.740677,232.319653 104.898332,232.319653 Z M154.401288,255.740291 C151.429614,255.740291 148.554145,254.115491 147.100377,251.28278 C145.037308,247.252849 146.61935,242.314311 150.649282,240.251242 C184.289059,222.966362 205.186981,188.760044 205.186981,150.972751 C205.186981,95.6654103 160.194983,50.6734117 104.887642,50.6734117 C66.9827653,50.6734117 32.7336889,71.6675398 15.4915665,105.456969 C13.4284979,109.486901 8.50065012,111.090322 4.47071823,109.027253 C0.440786326,106.974874 -1.16263485,102.036337 0.900433737,98.0064048 C20.953888,58.7012071 60.804249,34.2864473 104.898332,34.2864473 C169.238278,34.2864473 221.584636,86.6328042 221.584636,150.972751 C221.584636,194.92787 197.27677,234.724784 158.142604,254.831686 C156.945383,255.451675 155.662646,255.740291 154.401288,255.740291 Z M232.968926,221.929483 C231.750326,221.929483 230.521036,221.651557 229.355883,221.074325 C225.34733,219.075393 223.711841,214.211682 225.710772,210.19244 C251.418959,158.540899 241.253269,96.4136731 200.430165,55.59057 C159.45741,14.6178141 97.1591518,4.53763961 45.4114057,30.5237522 C41.4028528,32.5333734 36.5284523,30.9192628 34.5188311,26.9107098 C32.5092099,22.9021568 34.1233206,18.0277565 38.1318735,16.0181353 C96.1329622,-13.0999934 165.9673,-1.81190826 211.899972,44.1207638 C257.661612,89.8824041 269.045902,159.53502 240.227079,217.429214 C238.816068,220.283304 235.951289,221.929483 232.968926,221.929483 Z" fill="#F26C5D" fill-rule="nonzero"></path>
    </g>
</svg>

<svg width="256" height="256" xmlns="http://www.w3.org/2000/svg" preserveAspectRatio="xMidYMid"><path d="M104.898 197.43c-25.612 0-46.456-20.845-46.456-46.457 0-25.612 20.844-46.457 46.456-46.457 25.612 0 46.457 20.845 46.457 46.457 0 25.612-20.845 46.456-46.457 46.456zm0-76.676c-16.665 0-30.23 13.554-30.23 30.23 0 16.675 13.555 30.23 30.23 30.23 16.676 0 30.23-13.555 30.23-30.23 0-16.676-13.565-30.23-30.23-30.23zm8.977 39.4c-4.971 4.972-13.032 4.972-18.004 0-4.972-4.972-4.972-13.033 0-18.005 4.972-4.971 13.033-4.971 18.004 0 4.972 4.972 4.972 13.033 0 18.005zm-8.977 72.166a81.205 81.205 0 01-24.275-3.688c-4.319-1.347-6.724-5.944-5.377-10.262 1.347-4.319 5.943-6.734 10.262-5.377 6.242 1.956 12.774 2.94 19.39 2.94 35.81 0 64.95-29.14 64.95-64.95s-29.14-64.949-64.95-64.949-64.949 29.14-64.949 64.95c0 6.627.994 13.169 2.95 19.422a8.209 8.209 0 01-5.376 10.273 8.209 8.209 0 01-10.273-5.377 81.204 81.204 0 01-3.699-24.319c0-44.853 36.494-81.346 81.347-81.346 44.853 0 81.337 36.493 81.337 81.346s-36.494 81.337-81.337 81.337zm49.503 23.42a8.202 8.202 0 01-7.3-4.457c-2.064-4.03-.482-8.969 3.548-11.032 33.64-17.285 54.538-51.491 54.538-89.278 0-55.308-44.992-100.3-100.3-100.3-37.904 0-72.153 20.995-89.395 54.784-2.064 4.03-6.991 5.633-11.021 3.57A8.185 8.185 0 01.9 98.007c20.053-39.306 59.903-63.72 103.997-63.72 64.34 0 116.687 52.346 116.687 116.686 0 43.955-24.308 83.752-63.442 103.859a8.114 8.114 0 01-3.742.908zm78.568-33.81a8.11 8.11 0 01-3.613-.856 8.115 8.115 0 01-3.645-10.882c25.708-51.651 15.542-113.778-25.28-154.601C159.456 14.618 97.158 4.538 45.41 30.524a8.112 8.112 0 01-10.89-3.614 8.112 8.112 0 013.613-10.893C96.133-13.1 165.967-1.812 211.9 44.121c45.762 45.761 57.146 115.414 28.327 173.308a8.08 8.08 0 01-7.258 4.5z" fill="#F26C5D"/></svg>
